icons/unverified-24.svg

<svg xmlns="http://www.w3.org/2000/svg" width="24" height="24" viewBox="0 0 24 24"><path d="M13 16.5a1 1 0 11-2 0 1 1 0 012 0zm-2.517-7.665c.112-.223.268-.424.488-.57C11.186 8.12 11.506 8 12 8c.384 0 .766.118 1.034.319a.953.953 0 01.403.806c0 .48-.218.81-.62 1.186a9.293 9.293 0 01-.409.354 19.8 19.8 0 00-.294.249c-.246.213-.524.474-.738.795l-.126.19V13.5a.75.75 0 001.5 0v-1.12c.09-.1.203-.208.347-.333.063-.055.14-.119.222-.187.166-.14.358-.3.52-.452.536-.5 1.098-1.2 1.098-2.283a2.45 2.45 0 00-1.003-2.006C13.37 6.695 12.658 6.5 12 6.5c-.756 0-1.373.191-1.861.517a2.944 2.944 0 00-.997 1.148.75.75 0 001.341.67z"/><path d="M9.864 1.2a3.61 3.61 0 014.272 0l1.375 1.01c.274.2.593.333.929.384l1.686.259a3.61 3.61 0 013.021 3.02l.259 1.687c.051.336.183.655.384.929l1.01 1.375a3.61 3.61 0 010 4.272l-1.01 1.375a2.106 2.106 0 00-.384.929l-.259 1.686a3.61 3.61 0 01-3.02 3.021l-1.687.259a2.106 2.106 0 00-.929.384l-1.375 1.01a3.61 3.61 0 01-4.272 0l-1.375-1.01a2.106 2.106 0 00-.929-.384l-1.686-.259a3.61 3.61 0 01-3.021-3.02l-.259-1.687a2.106 2.106 0 00-.384-.929L1.2 14.136a3.61 3.61 0 010-4.272l1.01-1.375c.201-.274.333-.593.384-.929l.259-1.686a3.61 3.61 0 013.02-3.021l1.687-.259c.336-.051.655-.183.929-.384zm3.384 1.209a2.11 2.11 0 00-2.496 0l-1.376 1.01a3.61 3.61 0 01-1.589.658l-1.686.258a2.111 2.111 0 00-1.766 1.766l-.258 1.686a3.614 3.614 0 01-.658 1.59l-1.01 1.375a2.11 2.11 0 000 2.496l1.01 1.376a3.61 3.61 0 01.658 1.589l.258 1.686a2.11 2.11 0 001.766 1.765l1.686.26a3.613 3.613 0 011.59.657l1.375 1.01a2.11 2.11 0 002.496 0l1.376-1.01a3.61 3.61 0 011.589-.658l1.686-.258a2.11 2.11 0 001.765-1.766l.26-1.686a3.613 3.613 0 01.657-1.59l1.01-1.375a2.11 2.11 0 000-2.496l-1.01-1.376a3.61 3.61 0 01-.658-1.589l-.258-1.686a2.111 2.111 0 00-1.766-1.766l-1.686-.258a3.614 3.614 0 01-1.59-.658z"/></svg>

<svg xmlns="http://www.w3.org/2000/svg" width="24" height="24" viewBox="0 0 24 24">
  <defs/>
  <path d="M13,16.5 A1 1 0 1 1 11,16.5 A1 1 0 0 1 13,16.5 Z M10.483,8.835 C10.595,8.612 10.751,8.411 10.971,8.265 C11.186,8.12 11.506,8 12,8 C12.384,8 12.766,8.118 13.034,8.319 A0.953 0.953 0 0 1 13.437,9.125 C13.437,9.605 13.219,9.935 12.817,10.311 A9.293 9.293 0 0 1 12.408,10.665 A19.8 19.8 0 0 0 12.114,10.914 C11.868,11.127 11.59,11.388 11.376,11.709 L11.25,11.899 L11.25,13.5 A0.75 0.75 0 0 0 12.75,13.5 L12.75,12.38 C12.84,12.28 12.953,12.172 13.097,12.047 C13.16,11.992 13.237,11.928 13.319,11.86 C13.485,11.72 13.677,11.56 13.839,11.408 C14.375,10.908 14.937,10.208 14.937,9.125 A2.45 2.45 0 0 0 13.934,7.119 C13.37,6.695 12.658,6.5 12,6.5 C11.244,6.5 10.627,6.691 10.139,7.017 A2.944 2.944 0 0 0 9.142,8.165 A0.75 0.75 0 0 0 10.483,8.835 Z"/>
  <path d="M9.864,1.2 C11.135,0.267 12.865,0.267 14.136,1.2 L15.511,2.21 C15.785,2.41 16.104,2.543 16.44,2.594 L18.126,2.853 C19.684,3.092 20.908,4.315 21.147,5.873 L21.406,7.56 C21.457,7.896 21.589,8.215 21.79,8.489 L22.8,9.864 C23.733,11.135 23.733,12.865 22.8,14.136 L21.79,15.511 C21.589,15.785 21.457,16.104 21.406,16.44 L21.147,18.126 C20.908,19.684 19.685,20.908 18.127,21.147 L16.44,21.406 C16.104,21.457 15.785,21.589 15.511,21.79 L14.136,22.8 C12.865,23.733 11.135,23.733 9.864,22.8 L8.489,21.79 C8.215,21.589 7.896,21.457 7.56,21.406 L5.874,21.147 C4.316,20.908 3.092,19.685 2.853,18.127 L2.594,16.44 C2.543,16.104 2.411,15.785 2.21,15.511 L1.2,14.136 C0.267,12.865 0.267,11.135 1.2,9.864 L2.21,8.489 C2.411,8.215 2.543,7.896 2.594,7.56 L2.853,5.874 C3.092,4.316 4.315,3.092 5.873,2.853 L7.56,2.594 C7.896,2.543 8.215,2.411 8.489,2.21 Z M13.248,2.409 C12.505,1.864 11.495,1.864 10.752,2.409 L9.376,3.419 C8.907,3.763 8.362,3.989 7.787,4.077 L6.101,4.335 C5.19,4.475 4.475,5.19 4.335,6.101 L4.077,7.787 C3.989,8.362 3.763,8.908 3.419,9.377 L2.409,10.752 C1.864,11.495 1.864,12.505 2.409,13.248 L3.419,14.624 C3.763,15.093 3.989,15.638 4.077,16.213 L4.335,17.899 C4.475,18.81 5.19,19.524 6.101,19.664 L7.787,19.924 C8.362,20.012 8.908,20.237 9.377,20.581 L10.752,21.591 C11.495,22.136 12.505,22.136 13.248,21.591 L14.624,20.581 C15.093,20.237 15.638,20.011 16.213,19.923 L17.899,19.665 C18.81,19.525 19.524,18.81 19.664,17.899 L19.924,16.213 C20.012,15.638 20.237,15.092 20.581,14.623 L21.591,13.248 C22.136,12.505 22.136,11.495 21.591,10.752 L20.581,9.376 C20.237,8.907 20.011,8.362 19.923,7.787 L19.665,6.101 C19.525,5.19 18.81,4.475 17.899,4.335 L16.213,4.077 C15.638,3.989 15.092,3.763 14.623,3.419 Z"/>
</svg>
